X:1
T:Title
%%score { ( 1 3 ) | 2 }
L:1/8
Q:1/4=100
M:4/4
K:Bb
V:1 treble nm="Grand Piano"
V:3 treble 
V:2 bass 
V:1
 [DF]>[DF] [DF]>[EG] [DF]2 [DB]2 | [Fd]>[DB] [DB]>[EG] [DF]4 | E>E E>E A2 G2 | %3
w: John~R.~Sweney * * * * *|||
 [EG]>[DF] [DF]>[CE] [B,D]4 | [DF]>[DF] [DF]>[DF] [Fd]2 [FB]2 | G>G G>G c4 | B2 F2 d2 c2 | %7
w: ||||
 [DB]6 z2 | c>A A>G G2 F2 | [EG]>[DF] [B,D]>[DF] [DB]4 | c>A A>G G2 F2 | %11
w: ||||
 [DF]>[B,D] [DF]>[DB] [Fd]4 | [^Fd]>[Fd] [Gd]>[Gd] [Ae]2 [Gd]2 | [Gd]>[Gc] c>G c4 | B2 F2 d2 c2 | %15
w: ||||
 B6 z2 |] %16
w: |
V:2
 [B,,B,]>[B,,B,] [B,,B,]>[B,,B,] [B,,B,]2 [B,,F,]2 | [B,,B,]>[B,,F,] [B,,F,]>[B,,B,] [B,,B,]4 | %2
 [F,A,C]>[F,A,C] [F,A,C]>[F,A,C] [F,CE]2 [F,A,E]2 | [B,,B,]>[B,,B,] [B,,B,]>[B,,F,] [B,,F,]4 | %4
 [B,,B,]>[B,,B,] [B,,B,]>[B,,B,] [B,,B,]2 [D,B,]2 | [E,B,E]>[E,B,E] [E,B,E]>[E,B,E] [E,G,E]4 | %6
 [F,D]2 [F,B,D]2 [F,B,F]2 [F,A,E]2 | [B,,B,]6 z2 | %8
 [F,A,E]>[F,CE] [F,CE]>[F,B,E] [F,B,E]2 [F,A,E]2 | [B,,B,]>[B,,B,] [B,,F,]>[B,,F,] [B,,F,]4 | %10
 [F,A,E]>[F,CE] [F,CE]>[F,B,E] [F,B,E]2 [F,A,E]2 | [B,,B,]>[B,,F,] [B,,B,]>[B,,B,] [B,,B,]4 | %12
 [D,A,]>[D,A,] [G,B,]>[G,B,] [^F,C]2 [G,B,]2 | [E,G,]>[E,G,] [E,G,E]>[E,G,E] [E,G,E]4 | %14
 [F,D]2 [F,B,D]2 [F,B,F]2 [F,A,E]2 | [B,,F,]2 [B,,G,]2 [B,,F,]2 z2 |] %16
V:3
 x8 | x8 | x8 | x8 | x8 | x8 | x8 | x8 | x8 | x8 | x8 | x8 | x8 | x8 | x8 | D2 E2 D2 z2 |] %16

